X: 5
T: Old Alman
T: for couples
P: AAB x2
C: Anthony Holborne, The Cittharn Schoole, 1597
K: G dorian
M: 2/2
L: 1/4
P: A
"Gm"GA BG | "F"A3/G/ "Dm"F/E/F/D/ | "C"E/F/G G"D"^F | "Gm"G2 G2 :| \
P: B
"Gm"dc BA | "Bb"BA/G/ "F"FG/A/ | 
"Gm"Bc "Bb"d2 | "C"c2 "F"A2 | "Bb"B2 "Gm"G2 | "Dm"A2 "F"F2 | "C"EG G"D"^F | "Gm"G2 G2 |] 


